build/img/sprite/icon-user.svg

<svg width="14" height="16" viewBox="0 0 14 16" fill="none" xmlns="http://www.w3.org/2000/svg">
<path d="M6.99958 7.82505C8.7785 7.82505 10.2207 6.07337 10.2207 3.91255C10.2207 1.75168 9.74723 0 6.99958 0C4.25192 0 3.77832 1.75168 3.77832 3.91255C3.77832 6.07337 5.22056 7.82505 6.99958 7.82505Z" fill="currentColor"/>
<path d="M0.91567 13.7992C0.915124 13.6674 0.914577 13.762 0.91567 13.7992V13.7992Z" fill="currentColor"/>
<path d="M13.0835 13.9019C13.0852 13.8658 13.0841 13.6516 13.0835 13.9019V13.9019Z" fill="currentColor"/>
<path d="M13.0768 13.641C13.0171 9.87679 12.5255 8.80419 8.76353 8.12524C8.76353 8.12524 8.23397 8.80003 6.99969 8.80003C5.7654 8.80003 5.23576 8.12524 5.23576 8.12524C1.51484 8.79679 0.993333 9.85348 0.924762 13.5187C0.919139 13.818 0.916533 13.8337 0.915527 13.799C0.915756 13.8641 0.91603 13.9845 0.91603 14.1945C0.91603 14.1945 1.81166 16 6.99969 16C12.1876 16 13.0833 14.1945 13.0833 14.1945C13.0833 14.0596 13.0834 13.9658 13.0836 13.9019C13.0826 13.9234 13.0806 13.8818 13.0768 13.641Z" fill="currentColor"/>
</svg>

<svg width="14" height="16" fill="none" xmlns="http://www.w3.org/2000/svg"><path d="M7 7.825c1.778 0 3.22-1.752 3.22-3.912C10.22 1.752 9.748 0 7 0S3.778 1.752 3.778 3.913c0 2.16 1.443 3.912 3.222 3.912zM.916 13.8c0-.133-.001-.038 0 0zm12.168.102c.001-.036 0-.25 0 0z" fill="currentColor"/><path d="M13.077 13.641c-.06-3.764-.552-4.837-4.313-5.516 0 0-.53.675-1.764.675-1.235 0-1.764-.675-1.764-.675C1.515 8.797.993 9.853.925 13.52c-.006.299-.008.315-.01.28l.001.396S1.812 16 7 16s6.083-1.806 6.083-1.806v-.292a2.433 2.433 0 01-.006-.261z" fill="currentColor"/></svg>
